assets/img/lg-1425-identity-verfication.svg

<?xml version="1.0" encoding="UTF-8"?>
<svg width="96px" height="96px" viewBox="0 0 96 96" version="1.1" xmlns="http://www.w3.org/2000/svg" xmlns:xlink="http://www.w3.org/1999/xlink">
    <!-- Generator: Sketch 55.2 (78181) - https://sketchapp.com -->
    <title>Identity Verfication</title>
    <desc>An icon of a license of a headshot and text info</desc>
    <defs>
        <linearGradient x1="90.59375%" y1="91%" x2="9.03125%" y2="8.625%" id="linearGradient-1">
            <stop stop-color="#00BFE7" offset="0%"></stop>
            <stop stop-color="#99D7F4" offset="71%"></stop>
        </linearGradient>
        <linearGradient x1="35.8994501%" y1="30.3976019%" x2="81.9193506%" y2="82.0485984%" id="linearGradient-2">
            <stop stop-color="#009AE3" offset="0%"></stop>
            <stop stop-color="#00BFE7" offset="100%"></stop>
        </linearGradient>
    </defs>
    <g id="Page-1" stroke="none" stroke-width="1" fill="none" fill-rule="evenodd">
        <g id="Group-10">
            <rect id="icon-/-background" fill="url(#linearGradient-1)" fill-rule="nonzero" x="0" y="0" width="96" height="96" rx="8"></rect>
            <circle id="icon-/-circle" fill="#112E51" fill-rule="nonzero" cx="9" cy="87" r="3"></circle>
            <circle id="icon-/-circle" fill="#112E51" fill-rule="nonzero" cx="87" cy="9" r="3"></circle>
            <circle id="icon-/-circle" fill="#112E51" fill-rule="nonzero" cx="9" cy="9" r="3"></circle>
            <path d="M73,25 L73,27 L78.4917778,27 L95.9576298,44.465852 L95.9576298,87.7088924 C95.9576298,92.1271704 92.3759078,95.7088924 87.9576298,95.7088924 L44.2355778,95.7088924 L17.6999512,69.1732658 L17.6999512,63 L16,63 L16,61.618795 L52.618795,25 L73,25 Z" id="icon-/-shadow" fill="url(#linearGradient-2)"></path>
            <rect id="icon-/-license-/-background" stroke="#112E51" stroke-width="3" fill="#FFFFFF" x="17.5" y="26.5" width="61" height="43" rx="3"></rect>
            <path d="M45.0146917,55.5036904 C41.6334071,54.0722122 37.8738613,52.2920407 37.5601814,51.1863156 L37.5601814,49.9980052 C38.3308247,49.0813601 38.8729478,47.9966712 39.1424197,46.8322362 C39.9495299,46.15656 40.0963625,44.9762284 39.4791643,44.1252743 L39.4791643,41.523838 C39.4791643,38.8398165 38.0952824,37 34.9907741,37 C31.950847,37 30.502384,38.8352284 30.502384,41.523838 L30.502384,44.1252743 C29.8694474,44.9793138 30.0150347,46.1759443 30.8345156,46.8551765 C31.107213,48.0115644 31.6491791,49.0880814 32.4167539,49.9980052 L32.4167539,51.1587872 C32.098461,52.2920407 28.3435282,54.0630361 24.9622436,55.5036904 C24.6701879,55.6488234 24.4899743,55.9499501 24.5009496,56.2744863 L24.5009496,59.1741472 C24.4799188,59.6050691 24.8107208,59.972916 25.2436329,60 L44.7563671,60 C45.1892792,59.972916 45.5200812,59.6050691 45.4990504,59.1741472 L45.4990504,56.2698983 C45.5040081,55.9417393 45.314186,55.6414594 45.0146917,55.5036904 Z" id="icon-/-license-/-human" fill="#112E51" fill-rule="nonzero"></path>
            <g id="icon-/-license-/-text" transform="translate(51.000000, 42.000000)" fill="#112E51">
                <rect id="Rectangle-Copy-78" transform="translate(10.000000, 2.000000) rotate(-360.000000) translate(-10.000000, -2.000000) " x="0" y="-3.10862447e-15" width="20" height="4" rx="1"></rect>
                <rect id="Rectangle-Copy-114" transform="translate(7.826087, 10.000000) rotate(-360.000000) translate(-7.826087, -10.000000) " x="0" y="8" width="15.6521739" height="4" rx="1"></rect>
            </g>
            <circle id="icon-/-circle" fill="#112E51" fill-rule="nonzero" cx="87" cy="87" r="3"></circle>
        </g>
    </g>
</svg>

<svg width="96" height="96" xmlns="http://www.w3.org/2000/svg"><defs><linearGradient x1="90.594%" y1="91%" x2="9.031%" y2="8.625%" id="a"><stop stop-color="#00BFE7" offset="0%"/><stop stop-color="#99D7F4" offset="71%"/></linearGradient><linearGradient x1="35.899%" y1="30.398%" x2="81.919%" y2="82.049%" id="b"><stop stop-color="#009AE3" offset="0%"/><stop stop-color="#00BFE7" offset="100%"/></linearGradient></defs><g fill="none" fill-rule="evenodd"><rect fill="url(#a)" fill-rule="nonzero" width="96" height="96" rx="8"/><circle fill="#112E51" fill-rule="nonzero" cx="9" cy="87" r="3"/><circle fill="#112E51" fill-rule="nonzero" cx="87" cy="9" r="3"/><circle fill="#112E51" fill-rule="nonzero" cx="9" cy="9" r="3"/><path d="M73 25v2h5.492l17.466 17.466v43.243a8 8 0 01-8 8H44.236L17.7 69.173V63H16v-1.381L52.619 25H73z" fill="url(#b)"/><rect stroke="#112E51" stroke-width="3" fill="#FFF" x="17.5" y="26.5" width="61" height="43" rx="3"/><path d="M45.015 55.504c-3.382-1.432-7.141-3.212-7.455-4.318v-1.188a7.573 7.573 0 001.582-3.166 1.997 1.997 0 00.337-2.707v-2.601c0-2.684-1.384-4.524-4.488-4.524-3.04 0-4.489 1.835-4.489 4.524v2.601a1.998 1.998 0 00.333 2.73 7.569 7.569 0 001.582 3.143v1.16c-.319 1.134-4.073 2.905-7.455 4.346a.83.83 0 00-.461.77v2.9a.79.79 0 00.743.826h19.512a.79.79 0 00.743-.826V56.27a.83.83 0 00-.484-.766z" fill="#112E51" fill-rule="nonzero"/><g transform="translate(51 42)" fill="#112E51"><rect width="20" height="4" rx="1"/><rect y="8" width="15.652" height="4" rx="1"/></g><circle fill="#112E51" fill-rule="nonzero" cx="87" cy="87" r="3"/></g></svg>
